X: 1887
T: Stan Treacy's First Set Tune
B: australian traditional tunes wiki
M:2/4
L:1/16
R: Reel
Q: 1/4=100
K:G
V:1 
"G"G2GG B2d2|b4- b2aa|a2gg g2B2|d4-d2B2|"D"c3B c2A2|a4-a2ag|f2d2 e2d2|"G"B4-B2BA|
"G"G2GG B2d2|b4- b2aa|a2gg g2B2|d4-d2B2|"D"c3B c2A2|a4-a2ag|"D7"f2d2 e2f2|"G"g4-g2Bc||
|:"G"d2e2 d2Bc|d2e2 d2gg|"D"f2aa c2ee|e2g2 d2"G"Bc|
d2e2 d2Bc|d2e2 d2c2|B3A "D7"B2A2|"G"G4G4:|
% abcbook-tune_id 6342d53aaf15e252b60634ad


% abcbook-boost 0
% abcbook-tablature 
% abcbook-transpose 
% abcbook-lastupdated 1665324390710
% abcbook-soundfonts 
% abcbook-repeats 1
% NFF Book 2006

